src/icon.svg

<svg width="64" height="64" viewBox="0 0 64 64" fill="none" xmlns="http://www.w3.org/2000/svg">
<path d="M40 1.00781C42.8382 1.73832 45.5239 2.84889 48 4.28125V48H40V45.8604C37.5692 47.2677 34.8088 48.0058 32 48C23.163 48 16 40.837 16 32C16 23.163 23.163 16 32 16C34.9139 16 37.647 16.7797 40 18.1396V1.00781Z" fill="white"/>
<path fill-rule="evenodd" clip-rule="evenodd" d="M32 64C49.673 64 64 49.673 64 32C64 20.156 57.565 9.81402 48 4.28102V48H40V45.86C37.5692 47.2675 34.8089 48.0058 32 48C23.163 48 16 40.837 16 32C16 23.163 23.163 16 32 16C34.914 16 37.647 16.78 40 18.14V1.00802C37.3865 0.336047 34.6985 -0.00264133 32 1.551e-05C14.327 1.551e-05 0 14.327 0 32C0 49.673 14.327 64 32 64Z" fill="black"/>
</svg>

<svg width="64" height="64" viewBox="0 0 64 64" fill="none" xmlns="http://www.w3.org/2000/svg"><path fill-rule="evenodd" clip-rule="evenodd" d="M32 64c17.673 0 32-14.327 32-32 0-11.844-6.435-22.186-16-27.719V48h-8v-2.14A15.9 15.9 0 0 1 32 48c-8.837 0-16-7.163-16-16s7.163-16 16-16c2.914 0 5.647.78 8 2.14V1.008A32 32 0 0 0 32 0C14.327 0 0 14.327 0 32s14.327 32 32 32" fill="#000"/></svg>
